src/assets/icons/remotes/hidrive.svg

<svg width="24" height="24" viewBox="0 0 24 24" fill="currentColor" xmlns="http://www.w3.org/2000/svg">
    <path
        d="M12 2C12 3.22236 12.9995 4.22155 14.2222 4.22155H18.6667C18.9609 4.22288 19.2428 4.34034 19.4509 4.54836C19.6589 4.75638 19.7764 5.03813 19.7778 5.33232V9.77543C19.7778 10.9968 20.7783 11.997 22 11.997V4.22155C22 2.99818 21.0015 2 19.7778 2H12ZM8.11363 7.00102C7.5048 7.00102 7.00254 7.50313 7.00254 8.1118V15.8862C7.00254 16.4948 7.5048 16.998 8.11363 16.998H15.8904C16.4993 16.998 17.0025 16.4948 17.0025 15.8862V8.1118C17.0025 7.50313 16.4993 7.00102 15.8904 7.00102H8.11363ZM2 12.002V19.7784C2 21.0008 2.99848 22 4.22222 22H12C12 20.7777 10.9995 19.7784 9.77777 19.7784H5.33333C4.7245 19.7784 4.22121 19.2763 4.22121 18.6677V14.2246C4.2196 13.636 3.98513 13.0719 3.56898 12.6555C3.15283 12.2391 2.58879 12.0042 2 12.002Z" />
</svg>

<svg xmlns="http://www.w3.org/2000/svg" width="24" height="24" fill="currentColor" viewBox="0 0 24 24"><path d="M12 2c0 1.222 1 2.222 2.222 2.222h4.445a1.117 1.117 0 0 1 1.11 1.11v4.443A2.23 2.23 0 0 0 22 11.997V4.222A2.226 2.226 0 0 0 19.778 2zM8.114 7.001c-.61 0-1.111.502-1.111 1.11v7.775c0 .609.502 1.112 1.11 1.112h7.777c.61 0 1.113-.503 1.113-1.112V8.112c0-.609-.504-1.111-1.113-1.111zM2 12.002v7.776C2 21.001 2.998 22 4.222 22H12c0-1.222-1-2.222-2.222-2.222H5.333a1.12 1.12 0 0 1-1.112-1.11v-4.443A2.23 2.23 0 0 0 2 12.002"/></svg>
